X: 1
T: Black Joak
M: 6/8
L: 1/8
R: jig
K: Gmaj
D2G GFG | ABA A2G | G2d dcB| AcB AGF|
GAB E2E | DEF G3 :|
|: d2c BAG | Bcd e2e |\
M:3/8
d3 |
M:6/8
G2G Bcd | e2e d3 | c2c B2B | A2A A2G |
G2 d dcB | AcB AGF | GAB E2 E | DEF G3 :|
